X:724
T:Herr Roloff's Farewell 
C:Joe Buchanan's Scottish Tome - Page 500.1
I:500 1
C:J. Scott Skinner
Z:Jo Wegstein
R:Reel
L:1/8
M:4/4
K:Fmaj
C | A2 B>G c2 A>F | f2 e>d c2 AF | E2 F2 D2 EF | B2 A2 G2> C2 |
A2 B>G c2 A>F | f2 e>d c2 AF | E2 F>D C2 FB | A2 G2 F2> A2 ||
A2 d>e f2 ed | e2 A2 d2> G2 | G2 cd e2 dc | d2 G2 c2> C2 |
A2 B>G c2 A>F | f2 B>d c2 AF | D2 F2 C2 FB | A2 G2 F3 |]

